Papirus/64x64/apps/com.github.alexhuntley.Plots.svg

<?xml version="1.0" encoding="UTF-8" standalone="no"?>
<svg
   id="_图层_1"
   version="1.1"
   viewBox="0 0 64 64" width="64" height="64"
   sodipodi:docname="com.github.alexhuntley.Plots.svg"
   xml:space="preserve"
   inkscape:version="1.4 (e7c3feb100, 2024-10-09)"
   xmlns:inkscape="http://www.inkscape.org/namespaces/inkscape"
   xmlns:sodipodi="http://sodipodi.sourceforge.net/DTD/sodipodi-0.dtd"
   xmlns="http://www.w3.org/2000/svg"
   xmlns:svg="http://www.w3.org/2000/svg"><sodipodi:namedview
     id="namedview26"
     pagecolor="#505050"
     bordercolor="#eeeeee"
     borderopacity="1"
     inkscape:showpageshadow="0"
     inkscape:pageopacity="0"
     inkscape:pagecheckerboard="0"
     inkscape:deskcolor="#505050"
     inkscape:zoom="10.6875"
     inkscape:cx="32"
     inkscape:cy="32.093567"
     inkscape:window-width="1920"
     inkscape:window-height="939"
     inkscape:window-x="0"
     inkscape:window-y="34"
     inkscape:window-maximized="1"
     inkscape:current-layer="g27"
     showguides="true"><sodipodi:guide
       position="25.533397,50.243067"
       orientation="0,-1"
       id="guide26"
       inkscape:locked="false" /><sodipodi:guide
       position="50.579444,53.318274"
       orientation="1,0"
       id="guide27"
       inkscape:locked="false" /></sodipodi:namedview><!-- Generator: Adobe Illustrator 29.0.1, SVG Export Plug-In . SVG Version: 2.1.0 Build 192)  --><defs
     id="defs6"><style
       id="style1">
      .st0 {
        fill-opacity: .5;
      }

      .st0, .st1, .st2, .st3, .st4, .st5, .st6, .st7 {
        fill: #fff;
      }

      .st8 {
        fill: #133c9a;
      }

      .st2, .st9 {
        display: none;
      }

      .st3 {
        fill-opacity: .2;
      }

      .st4 {
        fill-opacity: .9;
      }

      .st10 {
        fill: #3370ff;
      }

      .st11 {
        fill: url(#_未命名的渐变_3);
      }

      .st12 {
        fill: url(#_未命名的渐变);
      }

      .st5 {
        fill-opacity: .3;
      }

      .st6 {
        fill-opacity: 0;
      }

      .st7 {
        fill-opacity: .7;
      }

      .st13 {
        fill: #00d6b9;
      }

      .st14 {
        fill: url(#_未命名的渐变_2);
      }
    </style><radialGradient
       id="_未命名的渐变"
       data-name="未命名的渐变"
       cx="123.9"
       cy="-40.2"
       fx="123.9"
       fy="-40.2"
       r="59.4"
       gradientTransform="translate(-26.8 25.5) scale(.6 -.7)"
       gradientUnits="userSpaceOnUse"><stop
         offset="0"
         stop-color="#db202e"
         id="stop1" /><stop
         offset="1"
         stop-color="#e01b24"
         id="stop2" /></radialGradient><radialGradient
       id="_未命名的渐变_2"
       data-name="未命名的渐变 2"
       cx="67.6"
       cy="26.8"
       fx="67.6"
       fy="26.8"
       r="105.2"
       gradientTransform="translate(-26.6 25.3) scale(.6 -.7)"
       gradientUnits="userSpaceOnUse"><stop
         offset="0"
         stop-color="#ffb648"
         id="stop3" /><stop
         offset="1"
         stop-color="#ff7800"
         stop-opacity="0"
         id="stop4" /></radialGradient><radialGradient
       id="_未命名的渐变_3"
       data-name="未命名的渐变 3"
       cx="61.7"
       cy="18.6"
       fx="61.7"
       fy="18.6"
       r="68"
       gradientTransform="translate(-26.8 25.8) scale(.6 -.7)"
       gradientUnits="userSpaceOnUse"><stop
         offset="0"
         stop-color="#c64600"
         id="stop5" /><stop
         offset="1"
         stop-color="#a51d2d"
         id="stop6" /></radialGradient></defs><path
     class="st1"
     d="M 47.5,64.1 H 13.8 C 6.2,64.1 0,57.8 0,50.3 V 13.7 C 0,6.2 6.2,0 13.7,0 H 50.3 C 57.8,0 64,6.2 64,13.7 V 50.3 C 64,57.8 57.8,64 50.3,64 h -2.9 0.1 z"
     id="path6"
     style="fill:#e4e4e4;fill-opacity:1"
     sodipodi:nodetypes="cssssssssccc" /><g
     id="g27"
     transform="matrix(1.0389876,0,0,1.3372773,-1.9483385,-11.303617)"><path
       style="fill:#8bc0ff;stroke-width:1.04637"
       d="M 6.3795225,11 V 37 H 2 v 2 H 6.3795225 V 53 H 8.5692837 V 39 H 63.313314 V 37 H 8.5692837 V 11 Z"
       id="path2" /><path
       style="opacity:0.1"
       d="m 2,17.49 v 5.47 c 0.34,1.42 0.7,3.03 1.04,4.78 0.8,4.16 1.61,8.96 2.43,12.92 0.81,3.97 1.62,6.24 2.48,8.29 0.43,1.02 0.85,1.8 1.46,2.36 0.31,0.28 0.7,0.51 1.16,0.56 0.47,0.05 0.94,-0.11 1.3,-0.36 0.65,-0.47 1.07,-1.14 1.51,-1.96 0.43,-0.81 0.85,-1.77 1.26,-2.8 0.82,-2.05 1.63,-3.58 2.41,-5.34 v 0 c 0.79,-1.78 1.58,-3.64 2.29,-4.5 0.35,-0.43 0.68,-0.71 0.91,-0.83 0.23,-0.12 0.32,-0.13 0.47,-0.08 0.36,0.1 1.15,0.77 1.92,1.72 0.78,0.95 1.59,2.3 2.47,3.23 0.83,0.87 1.68,1.67 2.61,2.26 0.92,0.59 1.96,0.98 3.07,0.86 2.14,-0.23 3.76,-1.83 5.17,-2.51 v 0 c 1.55,-0.75 3.02,-1.04 4.37,-0.98 1.39,0.06 2.96,0.63 4.67,1.01 0.54,0.12 1.07,-0.22 1.19,-0.75 0.12,-0.54 -0.22,-1.07 -0.75,-1.19 -1.52,-0.34 -3.18,-0.99 -5.02,-1.06 -1.87,-0.07 -3.63,0.37 -5.31,1.18 -1.82,0.88 -3.43,2.21 -4.52,2.33 -0.51,0.06 -1.08,-0.12 -1.78,-0.56 C 28.12,41.1 27.35,40.4 26.57,39.58 25.84,38.82 25.04,37.5 24.2,36.47 23.36,35.44 22.53,34.45 21.28,34.09 20.62,33.9 19.9,34.03 19.32,34.34 c -0.58,0.31 -1.06,0.77 -1.51,1.34 -0.91,1.13 -1.73,3.09 -2.56,4.95 v 0 c -0.83,1.88 -1.64,3.42 -2.44,5.41 -0.4,0.99 -0.79,1.9 -1.16,2.6 -0.36,0.67 -0.71,1.09 -0.87,1.22 v 0 C 10.54,49.67 10.16,49.09 9.78,48.19 9.03,46.4 8.21,44.17 7.41,40.27 6.61,36.35 5.8,31.56 4.99,27.37 4.18,23.17 3.47,19.7 2.46,17.89 2.36,17.71 2.19,17.57 2,17.49 Z"
       id="path3" /><path
       style="fill:#414141"
       d="m 2,16.49 v 5.47 c 0.34,1.42 0.7,3.03 1.04,4.78 0.8,4.16 1.61,8.96 2.43,12.92 0.81,3.97 1.62,6.24 2.48,8.29 0.43,1.02 0.85,1.8 1.46,2.36 0.31,0.28 0.7,0.51 1.16,0.56 0.47,0.05 0.94,-0.11 1.3,-0.36 0.65,-0.47 1.07,-1.14 1.51,-1.96 0.43,-0.81 0.85,-1.77 1.26,-2.8 0.82,-2.05 1.63,-3.58 2.41,-5.34 v 0 c 0.79,-1.78 1.58,-3.64 2.29,-4.5 0.35,-0.43 0.68,-0.71 0.91,-0.83 0.23,-0.12 0.32,-0.13 0.47,-0.08 0.36,0.1 1.15,0.77 1.92,1.72 0.78,0.95 1.59,2.3 2.47,3.23 0.83,0.87 1.68,1.67 2.61,2.26 0.92,0.59 1.96,0.98 3.07,0.86 2.14,-0.23 3.76,-1.83 5.17,-2.51 v 0 c 1.55,-0.75 3.02,-1.04 4.37,-0.98 1.39,0.06 2.96,0.63 4.67,1.01 0.54,0.12 1.07,-0.22 1.19,-0.75 0.12,-0.54 -0.22,-1.07 -0.75,-1.19 -1.52,-0.34 -3.18,-0.99 -5.02,-1.06 -1.87,-0.07 -3.63,0.37 -5.31,1.18 -1.82,0.88 -3.43,2.21 -4.52,2.33 -0.51,0.06 -1.08,-0.12 -1.78,-0.56 C 28.12,40.1 27.35,39.4 26.57,38.58 25.84,37.82 25.04,36.5 24.2,35.47 23.36,34.44 22.53,33.45 21.28,33.09 20.62,32.9 19.9,33.03 19.32,33.34 c -0.58,0.31 -1.06,0.77 -1.51,1.34 -0.91,1.13 -1.73,3.09 -2.56,4.95 v 0 c -0.83,1.88 -1.64,3.42 -2.44,5.41 -0.4,0.99 -0.79,1.9 -1.16,2.6 -0.36,0.67 -0.71,1.09 -0.87,1.22 v 0 C 10.54,48.67 10.16,48.09 9.78,47.19 9.03,45.4 8.21,43.17 7.41,39.27 6.61,35.36 5.8,30.56 4.99,26.37 4.18,22.17 3.47,18.7 2.46,16.89 2.36,16.71 2.19,16.57 2,16.49 Z"
       id="path4" /><path
       style="opacity:0.1"
       d="m 59.116,14 c -0.964,0 -1.903,0.475 -2.432,1.315 l -12.662,20.058 0.384,4.629 4.485,-1.884 12.704,-20.045 c 0.808,-1.28 0.363,-2.93 -0.994,-3.692 C 60.134,14.119 59.607,13.998 59.116,14 Z"
       id="path6-3" /><path
       fill="#ff881e"
       d="m 44.492,34.626 3.921,2.208 12.321,-19.5 -3.921,-2.208 z m 0,0"
       id="path7" /><path
       fill="#e66100"
       d="m 47.427,36.298 1.479,0.825 12.321,-19.5 -1.479,-0.826 z m 0,0"
       id="path8" /><path
       fill="#ffb367"
       d="m 45.477,35.204 -1.478,-0.846 12.321,-19.48 1.478,0.826 z m 0,0"
       id="path9" /><path
       style="fill:#dc5051"
       d="m 59.116,13.001 c -0.964,0 -1.903,0.474 -2.432,1.314 l -1.17,1.849 4.912,2.757 1.169,-1.849 c 0.808,-1.279 0.363,-2.93 -0.994,-3.692 -0.467,-0.262 -0.994,-0.381 -1.485,-0.379 z"
       id="path10" /><path
       style="fill:#e8ddc7"
       d="m 44.406,39.001 4.521,-1.899 -4.907,-2.765 z m 0,0"
       id="path11" /><path
       fill="#3d3846"
       d="m 44.406,39.001 1.971,-0.826 -2.142,-1.196 z m 0,0"
       id="path12" /><path
       style="fill:#b7b7b7"
       d="m 54.927,17.086 4.907,2.765 1.179,-1.857 -4.907,-2.765 z m 0,0"
       id="path13" /></g></svg>

<svg xmlns="http://www.w3.org/2000/svg" width="64" height="64" version="1.1">
 <rect style="opacity:0.2" width="56" height="42" x="2" y="12" rx="4" ry="4"/>
 <rect style="fill:#e4e4e4" width="56" height="42" x="2" y="11" rx="4" ry="4"/>
 <path style="fill:#8bc0ff" d="M 6 11 L 6 37 L 2 37 L 2 39 L 6 39 L 6 53 L 8 53 L 8 39 L 58 39 L 58 37 L 8 37 L 8 11 L 6 11 z"/>
 <path style="opacity:0.1" d="m 2,17.49 v 5.47 c 0.34,1.42 0.7,3.03 1.04,4.78 0.8,4.16 1.61,8.96 2.43,12.92 0.81,3.97 1.62,6.24 2.48,8.29 0.43,1.02 0.85,1.8 1.46,2.36 0.31,0.28 0.7,0.51 1.16,0.56 0.47,0.05 0.94,-0.11 1.3,-0.36 0.65,-0.47 1.07,-1.14 1.51,-1.96 0.43,-0.81 0.85,-1.77 1.26,-2.8 0.82,-2.05 1.63,-3.58 2.41,-5.34 v -0 c 0.79,-1.78 1.58,-3.64 2.29,-4.5 0.35,-0.43 0.68,-0.71 0.91,-0.83 0.23,-0.12 0.32,-0.13 0.47,-0.08 0.36,0.1 1.15,0.77 1.92,1.72 0.78,0.95 1.59,2.3 2.47,3.23 0.83,0.87 1.68,1.67 2.61,2.26 0.92,0.59 1.96,0.98 3.07,0.86 2.14,-0.23 3.76,-1.83 5.17,-2.51 h 0 c 1.55,-0.75 3.02,-1.04 4.37,-0.98 1.39,0.06 2.96,0.63 4.67,1.01 0.54,0.12 1.07,-0.22 1.19,-0.75 0.12,-0.54 -0.22,-1.07 -0.75,-1.19 -1.52,-0.34 -3.18,-0.99 -5.02,-1.06 -1.87,-0.07 -3.63,0.37 -5.31,1.18 -1.82,0.88 -3.43,2.21 -4.52,2.33 -0.51,0.06 -1.08,-0.12 -1.78,-0.56 -0.69,-0.44 -1.46,-1.14 -2.24,-1.96 -0.73,-0.76 -1.53,-2.08 -2.37,-3.11 -0.84,-1.03 -1.67,-2.02 -2.92,-2.38 -0.66,-0.19 -1.38,-0.06 -1.96,0.25 -0.58,0.31 -1.06,0.77 -1.51,1.34 -0.91,1.13 -1.73,3.09 -2.56,4.95 v 0 c -0.83,1.88 -1.64,3.42 -2.44,5.41 -0.4,0.99 -0.79,1.9 -1.16,2.6 -0.36,0.67 -0.71,1.09 -0.87,1.22 l -0,-0 C 10.54,49.67 10.16,49.09 9.78,48.19 9.03,46.4 8.21,44.17 7.41,40.27 6.61,36.35 5.8,31.56 4.99,27.37 4.18,23.17 3.47,19.7 2.46,17.89 2.36,17.71 2.19,17.57 2,17.49 Z"/>
 <path style="fill:#414141" d="m 2,16.49 v 5.47 c 0.34,1.42 0.7,3.03 1.04,4.78 0.8,4.16 1.61,8.96 2.43,12.92 0.81,3.97 1.62,6.24 2.48,8.29 0.43,1.02 0.85,1.8 1.46,2.36 0.31,0.28 0.7,0.51 1.16,0.56 0.47,0.05 0.94,-0.11 1.3,-0.36 0.65,-0.47 1.07,-1.14 1.51,-1.96 0.43,-0.81 0.85,-1.77 1.26,-2.8 0.82,-2.05 1.63,-3.58 2.41,-5.34 v -0 c 0.79,-1.78 1.58,-3.64 2.29,-4.5 0.35,-0.43 0.68,-0.71 0.91,-0.83 0.23,-0.12 0.32,-0.13 0.47,-0.08 0.36,0.1 1.15,0.77 1.92,1.72 0.78,0.95 1.59,2.3 2.47,3.23 0.83,0.87 1.68,1.67 2.61,2.26 0.92,0.59 1.96,0.98 3.07,0.86 2.14,-0.23 3.76,-1.83 5.17,-2.51 h 0 c 1.55,-0.75 3.02,-1.04 4.37,-0.98 1.39,0.06 2.96,0.63 4.67,1.01 0.54,0.12 1.07,-0.22 1.19,-0.75 0.12,-0.54 -0.22,-1.07 -0.75,-1.19 -1.52,-0.34 -3.18,-0.99 -5.02,-1.06 -1.87,-0.07 -3.63,0.37 -5.31,1.18 -1.82,0.88 -3.43,2.21 -4.52,2.33 -0.51,0.06 -1.08,-0.12 -1.78,-0.56 -0.69,-0.44 -1.46,-1.14 -2.24,-1.96 -0.73,-0.76 -1.53,-2.08 -2.37,-3.11 -0.84,-1.03 -1.67,-2.02 -2.92,-2.38 -0.66,-0.19 -1.38,-0.06 -1.96,0.25 -0.58,0.31 -1.06,0.77 -1.51,1.34 -0.91,1.13 -1.73,3.09 -2.56,4.95 v 0 c -0.83,1.88 -1.64,3.42 -2.44,5.41 -0.4,0.99 -0.79,1.9 -1.16,2.6 -0.36,0.67 -0.71,1.09 -0.87,1.22 l -0,-0 C 10.54,48.67 10.16,48.09 9.78,47.19 9.03,45.4 8.21,43.17 7.41,39.27 6.61,35.36 5.8,30.56 4.99,26.37 4.18,22.17 3.47,18.7 2.46,16.89 2.36,16.71 2.19,16.57 2,16.49 Z"/>
 <path style="opacity:0.2;fill:#ffffff" d="M 6 11 C 3.784 11 2 12.784 2 15 L 2 16 C 2 13.784 3.784 12 6 12 L 54 12 C 56.216 12 58 13.784 58 16 L 58 15 C 58 12.784 56.216 11 54 11 L 6 11 z"/>
 <path style="opacity:0.1" d="M 59.116,14 C 58.152,14 57.213,14.475 56.684,15.315 L 44.022,35.373 44.406,40.002 48.891,38.118 61.595,18.073 C 62.403,16.793 61.958,15.143 60.601,14.381 60.134,14.119 59.607,13.998 59.116,14 Z"/>
 <path fill="#ff881e" d="M 44.492,34.626 48.413,36.834 60.734,17.334 56.813,15.126 Z M 44.492,34.626"/>
 <path fill="#e66100" d="M 47.427,36.298 48.906,37.123 61.227,17.623 59.748,16.797 Z M 47.427,36.298"/>
 <path fill="#ffb367" d="M 45.477,35.204 43.999,34.358 56.32,14.878 57.798,15.704 Z M 45.477,35.204"/>
 <path style="fill:#dc5051" d="M 59.116,13.001 C 58.152,13.001 57.213,13.475 56.684,14.315 L 55.514,16.164 60.426,18.921 61.595,17.072 C 62.403,15.793 61.958,14.142 60.601,13.38 60.134,13.118 59.607,12.999 59.116,13.001 Z"/>
 <path style="fill:#e8ddc7" d="M 44.406,39.001 48.927,37.102 44.02,34.337 Z M 44.406,39.001"/>
 <path fill="#3d3846" d="M 44.406,39.001 46.377,38.175 44.235,36.979 Z M 44.406,39.001"/>
 <path style="fill:#b7b7b7" d="M 54.927,17.086 59.834,19.851 61.013,17.994 56.106,15.229 Z M 54.927,17.086"/>
</svg>
